X: 16925
T: Have A Drink With Me
R: jig
M: 6/8
K: Eminor
|:A|BAG EGD|EGD EGA|BAG EGD|EAA AGA|
BAG EGD|EGD EGA|BAG E2 D|1 EGG G2A:|2 EGG G2 D||
|:GBd e2d|dgd B2 A|GBd edB|c2a a3|
bag agf|ged e/f/gd|BAG ABc|1 BGF G2D:|2 EGG G2A||

